X:10102
T:Morpeth Rant
R:Reel
M:4/4
L:1/8
B:Tuneworks Tunebook (https://www.tuneworks.co.uk/) p2
G:tuneworks
Z:Jon Warbrick, jon.warbrick@googlemail.com
K:D
|: A2 | "D"d2 AG FDFA | "G"BGBd "A"cAce | "D"f2fd "G"gfed | "A"c2 e2 e2A2 | 
"D"d2 AG FDFA | "G"BGBd "A"cAce | "D"f2 fd "G"gfed | "A"A2 d2 "D"d2:|
|: A2 | "D"dfaf dfaf | "G"gfef g2 ef | "A"gfed cdeg | "D"fefg f2 A2 | 
"D"dfaf dfaf | "G"gfef g2 ef | "A"gfed caag | "D"f2d2d2 :|



